icons/weapons/two_handed_melee.svg

<svg xmlns="http://www.w3.org/2000/svg" xmlns:xlink="http://www.w3.org/1999/xlink" width="128pt" height="108pt" viewBox="0 0 128 108" version="1.1">
<g id="surface1">
<path d="M 69.898438 1.839844 C 70.917969 0.816406 72.144531 0.253906 73.574219 0.152344 C 75.003906 0.0507812 76.179688 0.511719 77.097656 1.53125 L 81.847656 6.28125 C 82.664062 7.199219 83.074219 8.324219 83.074219 9.652344 C 82.96875 10.980469 82.460938 12.152344 81.539062 13.175781 L 84.605469 14.398438 L 87.207031 13.019531 L 88.28125 12.410156 L 91.804688 15.933594 L 91.957031 15.933594 L 93.03125 16.851562 L 96.398438 20.835938 L 95.789062 21.90625 L 94.101562 24.359375 L 94.714844 26.042969 L 98.699219 24.96875 L 102.222656 26.347656 L 126.121094 47.03125 C 127.34375 48.050781 127.957031 49.277344 127.957031 50.707031 C 127.957031 52.136719 127.445312 53.464844 126.425781 54.6875 L 111.105469 69.242188 C 110.085938 70.46875 108.808594 71.03125 107.277344 70.925781 L 103.601562 68.9375 L 83.683594 44.578125 C 82.765625 43.351562 82.304688 41.921875 82.304688 40.289062 C 82.410156 38.65625 83.074219 37.328125 84.296875 36.304688 L 84.296875 36.152344 L 83.226562 35.695312 L 67.753906 50.09375 L 71.582031 58.058594 C 72.296875 59.488281 72.859375 61.941406 73.269531 65.414062 L 70.664062 65.71875 L 69.132812 58.980469 L 65.761719 52.085938 L 64.078125 53.617188 C 64.996094 56.476562 64.6875 58.417969 63.15625 59.4375 L 57.796875 59.746094 L 53.507812 57.90625 L 53.046875 57.445312 L 49.828125 51.777344 L 48.144531 46.417969 C 47.941406 45.90625 48.144531 45.34375 48.757812 44.730469 L 50.902344 44.121094 L 53.660156 44.425781 L 55.039062 43.199219 L 51.054688 41.054688 L 44.925781 41.820312 C 43.601562 42.332031 42.835938 43.25 42.628906 44.578125 L 42.78125 47.03125 L 43.550781 49.480469 L 43.394531 49.328125 L 44.773438 53.3125 L 42.171875 54.6875 L 40.179688 48.410156 L 38.492188 48.714844 C 37.777344 49.125 37.574219 50.144531 37.878906 51.777344 L 38.035156 53.464844 L 38.953125 56.222656 L 37.574219 58.671875 L 37.113281 58.210938 L 35.125 53.3125 L 33.4375 54.078125 C 33.03125 54.585938 32.980469 55.457031 33.285156 56.679688 L 34.050781 59.589844 L 34.816406 61.429688 L 33.285156 63.726562 L 32.824219 63.421875 L 30.988281 58.980469 L 29.761719 60.050781 L 29.914062 61.582031 L 31.140625 63.726562 L 34.511719 70.160156 L 38.1875 74.449219 L 50.136719 78.585938 C 51.667969 79.097656 52.894531 79.964844 53.8125 81.191406 L 54.886719 82.722656 L 52.28125 83.796875 L 51.667969 82.722656 C 51.054688 82.109375 50.1875 81.601562 49.0625 81.191406 L 46.765625 80.425781 L 46.304688 85.175781 C 45.796875 86.707031 44.875 87.777344 43.550781 88.390625 L 39.871094 89.3125 C 39.972656 90.636719 39.667969 91.660156 38.953125 92.375 C 38.035156 93.496094 36.65625 94.058594 34.816406 94.058594 C 34.714844 95.488281 34.253906 96.613281 33.4375 97.429688 C 32.417969 98.449219 31.140625 98.910156 29.609375 98.808594 L 26.542969 101.71875 L 22.5625 101.566406 L 18.273438 99.269531 L 11.378906 106.007812 C 10.050781 107.335938 8.519531 108 6.78125 108 C 4.945312 108 3.363281 107.335938 2.035156 106.007812 C 0.707031 104.679688 0.0429688 103.097656 0.0429688 101.257812 C 0.0429688 99.421875 0.707031 97.941406 2.035156 96.816406 L 8.160156 90.6875 L 4.179688 79.8125 C 3.972656 78.6875 3.515625 77.871094 2.800781 77.363281 L 1.878906 76.75 L 2.800781 73.992188 L 4.484375 75.21875 C 5.507812 76.136719 6.324219 77.414062 6.9375 79.046875 L 11.226562 90.6875 C 11.839844 92.324219 15.363281 94.722656 21.796875 97.890625 L 23.789062 98.960938 L 25.625 99.113281 L 26.542969 98.195312 C 24.296875 97.480469 22.867188 96.816406 22.253906 96.203125 L 21.796875 95.746094 L 24.246094 94.210938 L 25.777344 94.980469 L 28.996094 95.746094 L 31.445312 95.4375 L 32.058594 94.058594 C 29.8125 93.652344 28.230469 92.988281 27.3125 92.066406 L 27.003906 91.457031 L 29.300781 90.078125 L 32.058594 90.996094 L 33.746094 91.300781 L 36.808594 90.6875 L 37.113281 88.699219 C 34.152344 88.1875 32.109375 87.523438 30.988281 86.707031 L 32.367188 84.253906 L 36.042969 85.632812 L 36.042969 85.480469 L 38.648438 86.246094 L 40.792969 86.554688 C 42.222656 86.246094 43.191406 85.429688 43.703125 84.101562 L 44.007812 79.351562 L 42.171875 78.742188 C 42.066406 79.964844 41.8125 80.835938 41.402344 81.34375 C 40.996094 81.855469 40.484375 82.058594 39.871094 81.957031 L 34.050781 79.507812 C 31.089844 78.28125 29.046875 77.054688 27.921875 75.828125 L 27.617188 75.675781 L 26.238281 71.234375 C 25.933594 69.292969 26.085938 67.660156 26.699219 66.332031 C 27.105469 65.71875 27.71875 65.207031 28.535156 64.800781 L 27.617188 62.960938 C 27.003906 61.941406 26.800781 60.96875 27.003906 60.050781 L 19.652344 58.367188 L 20.109375 55.609375 L 28.382812 57.445312 L 30.375 56.066406 C 30.171875 54.332031 30.527344 53.003906 31.445312 52.085938 C 32.265625 51.269531 33.386719 50.757812 34.816406 50.554688 C 35.019531 48.816406 35.632812 47.488281 36.65625 46.570312 L 39.871094 45.652344 L 40.636719 41.972656 C 41.25 40.648438 42.375 39.675781 44.007812 39.0625 L 51.207031 38.296875 L 51.667969 38.296875 L 57.183594 41.207031 L 72.808594 25.277344 L 72.042969 22.519531 C 71.019531 23.234375 69.847656 23.589844 68.519531 23.589844 C 67.191406 23.589844 66.121094 23.132812 65.300781 22.210938 L 60.554688 17.464844 C 59.632812 16.542969 59.226562 15.371094 59.328125 13.941406 C 59.53125 12.511719 60.195312 11.285156 61.320312 10.265625 L 69.898438 1.839844 "/>
</g>
</svg>

<svg xmlns="http://www.w3.org/2000/svg" width="128pt" height="144" viewBox="0 0 128 108"><path d="M69.898 1.84Q71.43.305 73.574.152q2.146-.15 3.524 1.38l4.75 4.75q1.225 1.377 1.226 3.37c-.105 1.328-.613 2.5-1.535 3.524l3.066 1.222 2.602-1.378 1.074-.61 3.524 3.524h.152l1.074.918 3.367 3.984-.609 1.07-1.687 2.453.613 1.684 3.984-1.074 3.524 1.379L126.12 47.03q1.835 1.53 1.836 3.676-.001 2.146-1.531 3.98l-15.32 14.555q-1.53 1.842-3.829 1.684l-3.675-1.989-19.918-24.359q-1.379-1.84-1.38-4.289.159-2.449 1.993-3.984v-.153l-1.07-.457-15.473 14.399 3.828 7.965q1.072 2.145 1.688 7.355l-2.606.305-1.531-6.739-3.371-6.894-1.684 1.531q1.376 4.29-.922 5.82l-5.36.31-4.288-1.84-.461-.462-3.219-5.668-1.683-5.359q-.306-.767.613-1.688l2.144-.609 2.758.305 1.38-1.227-3.985-2.144-6.13.765q-1.986.767-2.296 2.758l.152 2.453.77 2.45-.156-.153 1.378 3.984-2.601 1.376-1.992-6.278-1.688.305q-1.072.614-.613 3.062l.156 1.688.918 2.758-1.379 2.449-.46-.461-1.989-4.898-1.687.765c-.407.508-.458 1.379-.153 2.602l.766 2.91.765 1.84-1.53 2.297-.462-.305-1.836-4.442-1.226 1.07.152 1.532 1.227 2.145 3.37 6.433 3.676 4.29 11.95 4.136q2.298.767 3.675 2.605l1.075 1.532-2.606 1.074-.613-1.074c-.613-.614-1.48-1.121-2.605-1.532l-2.297-.765-.461 4.75c-.508 1.531-1.43 2.601-2.754 3.215l-3.68.921q.154 1.989-.918 3.063-1.377 1.683-4.137 1.684-.152 2.145-1.379 3.37-1.53 1.53-3.828 1.38l-3.066 2.91-3.98-.153-4.29-2.296-6.894 6.738Q9.388 108 6.78 108q-2.754 0-4.746-1.992t-1.992-4.75q0-2.754 1.992-4.442l6.125-6.129-3.98-10.874c-.207-1.126-.664-1.942-1.38-2.45l-.921-.613.922-2.758 1.683 1.227q1.534 1.378 2.454 3.828l4.289 11.64q.92 2.454 10.57 7.204l1.992 1.07 1.836.152.918-.918q-3.369-1.073-4.29-1.992l-.456-.457 2.45-1.535 1.53.77 3.22.765 2.448-.308.614-1.38q-3.37-.609-4.746-1.992l-.31-.609 2.298-1.379 2.758.918 1.687.305 3.063-.614.304-1.988q-4.442-.767-6.125-1.992l1.38-2.453 3.675 1.379v-.153l2.605.766 2.145.309q2.144-.462 2.91-2.453l.305-4.75-1.836-.61c-.106 1.223-.36 2.094-.77 2.602q-.61.766-1.53.613l-5.821-2.45q-4.441-1.839-6.13-3.679l-.304-.152-1.379-4.442q-.457-2.91.461-4.902.61-.92 1.836-1.531l-.918-1.84q-.918-1.532-.613-2.91l-7.352-1.684.457-2.758 8.274 1.836 1.992-1.379q-.306-2.602 1.07-3.98 1.229-1.225 3.371-1.531.306-2.608 1.84-3.985l3.215-.918.766-3.68q.92-1.987 3.37-2.91l7.2-.765h.461l5.516 2.91 15.625-15.93-.766-2.757q-1.533 1.07-3.523 1.07c-1.329 0-2.399-.457-3.22-1.38l-4.745-4.745c-.922-.922-1.328-2.094-1.227-3.524q.305-2.146 1.992-3.675z"/></svg>
